assets/icons/qvision/snippet_folder.svg

<svg xmlns="http://www.w3.org/2000/svg" enable-background="new 0 0 24 24" height="24" viewBox="0 0 24 24" width="24"><g><rect fill="none" height="24" width="24"/><path d="M15.88,10.5l1.62,1.62v3.38l-3,0v-5H15.88z M22,8v10c0,1.1-0.9,2-2,2H4c-1.1,0-2-0.9-2-2L2.01,6C2.01,4.9,2.9,4,4,4h6l2,2 h8C21.1,6,22,6.9,22,8z M19,11.5L16.5,9H13v8l6,0V11.5z"/></g></svg>

<svg width="24" height="24" viewBox="0 0 24 24" fill="none" xmlns="http://www.w3.org/2000/svg">
<g clip-path="url(#clip0_147_2892)">
<path d="M15.88 10.5L17.5 12.12V15.5H14.5V10.5H15.88ZM22 8V18C22 19.1 21.1 20 20 20H4C2.9 20 2 19.1 2 18L2.01 6C2.01 4.9 2.9 4 4 4H10L12 6H20C21.1 6 22 6.9 22 8ZM19 11.5L16.5 9H13V17H19V11.5Z" fill="#323232"/>
</g>
<defs>
<clipPath id="clip0_147_2892">
<rect width="24" height="24" fill="white"/>
</clipPath>
</defs>
</svg>
